img/dribbble.svg

<svg xmlns="http://www.w3.org/2000/svg" xmlns:xlink="http://www.w3.org/1999/xlink" preserveAspectRatio="xMidYMid" width="100" height="100" viewBox="0 0 100 100">
  <defs>
    <style>
      .cls-1 {
        fill: #0fc;
        fill-rule: evenodd;
      }
    </style>
  </defs>
  <path d="M50.489,10.009 C28.086,10.009 9.995,27.875 9.995,50.000 C9.995,72.125 28.086,89.992 50.489,89.992 C72.893,89.992 90.984,72.125 90.984,50.000 C90.984,27.875 72.893,10.009 50.489,10.009 ZM76.924,29.264 C81.329,34.818 84.048,41.761 84.235,49.352 C76.080,47.501 68.300,47.130 60.988,48.241 C60.144,46.205 59.207,44.168 58.269,42.039 C65.862,38.984 72.049,34.725 76.924,29.264 ZM50.489,16.674 C58.926,16.674 66.706,19.729 72.612,24.820 C68.206,29.912 62.582,33.800 55.458,36.669 C51.990,30.375 47.865,23.894 42.709,17.600 C45.240,16.952 47.771,16.674 50.489,16.674 ZM35.772,20.007 C41.022,26.301 45.334,32.689 48.802,38.891 C40.272,41.298 29.961,42.594 17.494,42.872 C19.743,32.782 26.586,24.357 35.772,20.007 ZM16.744,50.000 C16.744,49.630 16.744,49.352 16.744,48.982 C30.711,48.797 42.147,47.223 51.708,44.446 C52.552,46.205 53.395,48.056 54.145,49.815 C53.489,50.000 52.833,50.185 52.177,50.463 C41.491,54.166 32.492,61.479 25.368,72.218 C20.025,66.293 16.744,58.517 16.744,50.000 ZM50.489,83.326 C42.709,83.326 35.585,80.734 29.961,76.476 C37.647,64.534 46.928,58.239 56.489,55.554 C59.863,64.812 61.925,73.421 63.144,80.919 C59.301,82.493 54.989,83.326 50.489,83.326 ZM69.612,77.494 C68.300,70.459 66.425,62.497 63.332,54.073 C70.456,53.240 77.486,53.981 83.766,55.462 C82.267,64.627 77.017,72.403 69.612,77.494 Z" class="cls-1"/>
</svg>

<svg id="ad259eaa-3261-438b-b6d6-288f4f0787c4" data-name="Layer 1" xmlns="http://www.w3.org/2000/svg" viewBox="0 0 80.99 79.98"><defs><style>.\36 67386bd-be36-4b78-a9f5-d4bfeb26a395{fill:currentColor;}</style></defs><title>dribbble</title><path class="667386bd-be36-4b78-a9f5-d4bfeb26a395" d="M50.49,10a40,40,0,1,0,0,80A40,40,0,1,0,50.49,10ZM76.92,29.26a33.55,33.55,0,0,1,7.31,20.09A62.35,62.35,0,0,0,61,48.24c-0.84-2-1.78-4.07-2.72-6.2A49,49,0,0,0,76.92,29.26ZM50.49,16.67a33.83,33.83,0,0,1,22.12,8.15A43.53,43.53,0,0,1,55.46,36.67,125.13,125.13,0,0,0,42.71,17.6,30.87,30.87,0,0,1,50.49,16.67ZM35.77,20a124.16,124.16,0,0,1,13,18.88c-8.53,2.41-18.84,3.7-31.31,4A33.42,33.42,0,0,1,35.77,20Zm-19,30V49c14-.18,25.4-1.76,35-4.54,0.84,1.76,1.69,3.61,2.44,5.37a16.21,16.21,0,0,0-2,.65c-10.69,3.7-19.68,11-26.81,21.76A33.09,33.09,0,0,1,16.74,50ZM50.49,83.33A33.93,33.93,0,0,1,30,76.48c7.69-11.94,17-18.24,26.53-20.92a139.69,139.69,0,0,1,6.66,25.36A33.44,33.44,0,0,1,50.49,83.33Zm19.12-5.83a143.87,143.87,0,0,0-6.28-23.42,59.51,59.51,0,0,1,20.43,1.39A33.22,33.22,0,0,1,69.61,77.49Z" transform="translate(-9.99 -10.01)"/></svg>
